!!!!SEGMENT: pl-wtm--1535-sp-7896_krupinski-wiktor--niepokoj-ja-poszedlem-w-pole.krn
!!!cenid: 19xx:39
!!!COM: Krupiński, Wiktor
!!!COM-rismID: pe50047127
!!!CDT: 1879-1951
!!!CNT: Polish
!!!OTL: Niepokój/Ja poszedłem w pole
!!!PDT:
!!!AGN: Secular
!!!YEC: Copyright 2022 Narodowy Instytut Fryderyka Chopina (https://polishscores.org)
!!!YEM: License CC-BY-4.0 (https://creativecommons.org/licenses/by/4.0)
!!!SMS-siglum: PL-Wtm
!!!SMS-shelfmark: 1535 śp 7896
!!!SMS-variant:
!!!SMS-altvar:
!!!SMS-shelfwork: W
!!!NIFC-rismSourceID: 1001196125
!!!NIFC-rismChildID: 1001196125
!!!NIFC-islandoraID: pl-wtm:56681
!!!URL-pdf-islandora: https://repozytorium.nifc.pl/islandora/object/pl-wtm%3A56681/datastream/PDF/view
!!!URL-scan: https://polish.musicsources.pl/pl/lokalizacje/galeria/druki-muzyczne/18758/2 @EN{Scan on Polish Music Sources Website} @PL{Skany w portalu Dziedzictwo Muzyki Polskiej w otwartym dostępie}
!!!IIIF:
!!!ONB-nifc:
!!!AIN: 2 piano 1 vox
!!!key: D
**kern	**kern	**dynam	**kern	**text	**text	**text	**dynam
*part3	*part2	*part2	*part1	*part1	*part1	*part1	*part1
*staff3	*staff2	*	*staff1	*staff1	*staff1	*staff1	*
*I"[Fortepian]	*I"[Fortepian]	*	*I"[Głos solowy]	*	*	*	*
*I'[pf]	*I'[pf]	*	*I'[V]	*	*	*	*
*ICklav	*ICklav	*	*ICvox	*	*	*	*
*Ipiano	*Ipiano	*	*Ivox	*	*	*	*
*clefF4	*clefG2	*	*clefG2	*	*	*	*
*k[f#c#]	*k[f#c#]	*	*k[f#c#]	*	*	*	*
*D:	*D:	*	*D:	*	*	*	*
*M3/4	*M3/4	*	*M3/4	*	*	*	*
=1	=1	=1	=1	=1	=1	=1	=1
!	!	!	!LO:TX:a:B:t=Allegro grazioso	!	!	!	!
8DD/L	2r	.	2r	.	.	.	.
8AA/	.	.	.	.	.	.	.
8BB/	.	.	.	.	.	.	.
8C#/	.	.	.	.	.	.	.
8D/	4r	.	4r	.	.	.	.
8E/J	.	.	.	.	.	.	.
=2	=2	=2	=2	=2	=2	=2	=2
8F#\L	2r	.	2r	.	.	.	.
8E\J	.	.	.	.	.	.	.
4G\	.	.	.	.	.	.	.
4F#\	4r	.	4r	.	.	.	.
=3	=3	=3	=3	=3	=3	=3	=3
8A\L	8c#/L 8f#	.	2r	.	.	.	.
8G\J	8B/J 8e	.	.	.	.	.	.
8E\	8B/ 8d 8g 8b	.	.	.	.	.	.
8r	8r	.	.	.	.	.	.
4AA/	4G/ 4A 4c#	.	4r	.	.	.	.
=4	=4	=4	=4	=4	=4	=4	=4
4DD/	4F#/ 4d	.	2r	.	.	.	.
4r	4r	.	.	.	.	.	.
4r	4r	.	4r	.	.	.	.
=5||	=5||	=5||	=5||	=5||	=5||	=5||	=5||
*M6/8	*M6/8	*	*M6/8	*	*	*	*
4.D\	8r	.	8r	.	.	.	.
.	(8f#/L 8a	.	8a/	Ja	I	Lecz	.
.	8d/J) 8dd	.	4dd\	po-	te-	mój	.
4.E\	8r	.	.	.	.	.	.
.	(8c#/L 8cc#	.	8cc#\	-sze-	-raz,	smu-	.
.	8g/J) 8a	.	8a/	-dłem	śród	-tek	.
!!LO:LB:g=original	!	!	!	!	!	!	!
=6	=6	=6	=6	=6	=6	=6	=6
4.F#\	8r	.	4.dd\	w po-	o-	mi-	.
.	(8d/L 8dd	.	.	.	.	.	.
.	8f#/J) 8a	.	.	.	.	.	.
4.G\	8r	.	4.b\	-le.	-gnia,	-ja,	.
.	(8B/L 8b	.	.	.	.	.	.
.	8d/J) 8g	.	.	.	.	.	.
=7	=7	=7	=7	=7	=7	=7	=7
4.A\	8r	.	8r	.	.	.	.
.	(8c#/L 8e	.	8e/	Ty	Cza-	Bo	.
.	8B/J) 8g	.	4b\	zo-	-sa-	dru-	.
4.AA/	8r	.	.	.	.	.	.
.	(8A/L 8c# 8f#	.	8a/	-sta-	-mi	-gie-	.
.	8G/J) 8B 8e	.	8e/	-łaś	się	-go	.
=8	=8	=8	=8	=8	=8	=8	=8
4.D\	8r	.	4.f#/	w do-	bo-	ra-	.
.	8d/L 8f#	.	.	.	.	.	.
.	8B/J	.	.	.	.	.	.
4.DD/	8r	.	4.f#/	-mu	-ję,	-na	.
.	8d/L 8f#	.	.	.	.	.	.
.	8B-X/J	.	.	.	.	.	.
=9	=9	=9	=9	=9	=9	=9	=9
4.FF#/	8r	.	8r	.	.	.	.
!	!LO:TX:b:i:t=un poco mene	!	!	!	!	!	!
.	8A#X/L 8c# 8f#	.	8f#/	Że	Że	List	.
.	8c#/J 8f# 8a#X	.	4a#X/	cię	ktoś	do-	.
4.AA#X/	8r	.	.	.	.	.	.
.	[8c#/L 8f# 8a#	.	8cc#\	ca-	za-	-sta-	.
.	8c#/J] 8f# 8cc#	.	8ee\	-ło-	-stę-	-ję	.
=10	=10	=10	=10	=10	=10	=10	=10
*	*^	*	*	*	*	*	*
4.BB/	8r	8ryy	.	4.ee\	-wa-	-pu-	w puł-	.
.	4cc#/	8e\L	.	.	.	.	.	.
.	.	8g\J	.	.	.	.	.	.
4.GG/	8r	8ryy	.	4.dd\	-łem,	-je	-ku,	.
.	8d/L 8b	4ryy	.	.	.	.	.	.
.	8d/J 8g	.	.	.	.	.	.	.
*	*v	*v	*	*	*	*	*	*
!!LO:LB:g=original	!	!	!	!	!	!	!
=11	=11	=11	=11	=11	=11	=11	=11
4.AA/	8r	.	8r	.	.	.	.
!	!LO:TX:b:i:t=a poco rit.	!	!	!	!	!	!
.	8d/L 8f#	.	8a/	Nie	Mło-	Ko-	.
.	8B/J	.	8f#/	daj	-de	-cha-	.
4.AA/	8r	.	8r	.	.	.	.
.	8c#/L 8g	.	8a/	ust	u-	-na,	.
.	8B/J	.	8a/	ni-	-sta	ko-	.
=12	=12	=12	=12	=12	=12	=12	=12
2.FF#/	8r	.	4.dd\	-ko-	mo-	-cha-	.
.	(>8cn/L 8e 8a	<	.	.	.	.	.
.	8d/J 8f# 8b	.	.	.	.	.	.
!	!	!	!LO:N:vis=4	!	!	!	!
.	8e/L 8g 8ccn	.	8dd\	-mu.	-je	-na!	.
.	8d/ 8g 8b	.	4r	.	.	.	.
.	8c/J) 8g 8a	[[	.	.	.	.	.
=13	=13	=13	=13	=13	=13	=13	=13
4.D\	8r	.	8r	.	.	.	.
!	!LO:TX:b:i:t=a tempo	!	!	!	!	!	!
.	(8F#/L 8cn 8d	.	8d/	Ca-	Że	Pi-	.
.	8A/J) 8c 8f#	.	4f#/	-ło-	mo-	-szesz,	.
4.Cn/	8r	.	.	.	.	.	.
.	(8A/L 8d 8f# 8a	.	8a/	-wa-	-że	że	.
.	8c/J) 8e 8a	.	8ccn\	-li-	po	twe	.
=14	=14	=14	=14	=14	=14	=14	=14
4.BB/	8r	.	4.ee\	-my	no-	u-	.
.	(8e/L 8ee	.	.	.	.	.	.
.	8g/J) 8b	.	.	.	.	.	.
4.GG/	8r	.	4.dd\	się	-cy	-sta	.
.	(8B/L 8b	.	.	.	.	.	.
.	8d/J) 8g	.	.	.	.	.	.
=15	=15	=15	=15	=15	=15	=15	=15
4.AA/	8r	.	8r	.	.	.	.
.	8F#/L 8cn 8d	.	8d/	Aż	Przy	To	.
.	8c/J 8e 8f#	.	4f#/	nam	dre-	są	.
4.D\	8r	.	.	.	.	.	.
.	8c/L 8e 8a	.	8a/	tchu	-wnia-	u-	.
.	8e/J 8g 8cc#	.	8ccn\	nie	-nym	-sta	.
!!LO:PB:g=original	!	!	!	!	!	!	!
=16	=16	=16	=16	=16	=16	=16	=16
!LO:TX:a:i:t=rit.	!	!	!LO:TX:a:i:t=rit.	!	!	!	!
4.BB/	8r	.	4.ee\	sta-	mo-	mo-	.
.	8e/L 8ee	.	.	.	.	.	.
.	8g#X/J 8b	.	.	.	.	.	.
4.EE/	8r	.	4.dd\	-ło,	-ście	-je,	.
.	8d/L 8dd	.	.	.	.	.	.
.	8fn/J 8g#X 8b	.	.	.	.	.	.
=17	=17	=17	=17	=17	=17	=17	=17
*	*^	*	*	*	*	*	*
4.AA/	8r	2ryy	.	8r	.	.	.	.
.	[8cn/L [>8e 8b	.	.	8b\	Lecz	Przy-	Więc	.
.	8c/J] 8e] 8a	.	.	8a/	ja	-cho-	się	.
!LO:TX:a:i:t=rit.	!	!	!	!LO:TX:a:i:t=rit.	!	!	!	!
4.Cn/	8r	.	.	8r	.	.	.	.
.	8g/L	4A\ 4c	.	8dd\	cią-	-dzą	gło-	.
.	8e-X/J	.	.	8cc#\	-gle	do	-śno	.
*	*v	*v	*	*	*	*	*	*
=18	=18	=18	=18	=18	=18	=18	=18
!	!	!	!LO:TX:a:t=P:problem: ponad nutą zapisana ćwierćnuta w nawiasie 4gg [?]	!	!	!	!
4.D\	8r	.	4.dd\	my-	cie-	śmie-	.
.	(8B/L 8d 8g	.	.	.	.	.	.
.	8d/J) 8g 8b	.	.	.	.	.	.
4.E\	8r	.	4.b\	-ślę,	-bie	-je	.
.	8B^^</L 8d 8f#X	.	.	.	.	.	.
.	8d^^</J 8e 8b	.	.	.	.	.	.
=19	=19	=19	=19	=19	=19	=19	=19
4.AA/	8r	.	8r	.	.	.	.
.	(8d/L 8g 8b	.	8b\	Że	Ta-	I	.
.	8G/J) 8c#X 8e	.	4e/	ci	-je-	już	.
4.DD/	8r	.	.	.	.	.	.
.	(8e/L 8g 8ccn	.	8cc#\	by-	-mni-	się	.
.	8d/J) 8g 8b	.	8b\	-ło	-czy	nie	.
!!LO:LB:g=original	!	!	!	!	!	!	!
=20	=20	=20	=20	=20	=20	=20	=20
4.D\	8r	.	4.a/	ma-	go-	bo-	.
.	(8cn/L 8e 8a	.	.	.	.	.	.
.	8d/J) 8f#	.	.	.	.	.	.
4.GG/	8r	.	4.g/	-ło.	-ście.	-je.	.
.	(8A/L 8c 8g	.	.	.	.	.	.
.	8G/J) 8B 8d 8fn	.	.	.	.	.	.
=21	=21	=21	=21	=21	=21	=21	=21
*M2/4	*M2/4	*	*M2/4	*	*	*	*
*	*^	*	*	*	*	*	*
!	!	!	!	!LO:TX:a:B:t=Allegro moderato.	!	!	!	!
4CCn/ 4Cn	4g/	8r	.	4g/	Bo-	A	Śmie-	.
.	.	8G\ 8cn 8e	.	.	.	.	.	.
4BBB-X/ 4BB-X	4ccn/	8r	.	4ccn\	-na	ty,	-je	.
.	.	8c\ 8e 8g	.	.	.	.	.	.
=22	=22	=22	=22	=22	=22	=22	=22	=22
2AAA/ 2AA	8ffn/L	4g\ 4a 4cc#	>	8ffn\	po-	na-	sie	.
.	8ee/J	.	.	8ee\	-że-	-pół	ra-	.
.	8cc#X/L	4e\ 4g	.	8cc#X\	-gna-	sen-	-do-	.
.	8a/J	.	]]	8a/	-nie	-na,	-śnie	.
=23	=23	=23	=23	=23	=23	=23	=23	=23
!	!	!	!LO:HP:a	!	!	!	!	!
4DD/ 4D	4a/	8fn\L	<	4a/	Przy	Za	We-	.
.	.	8d\J	.	.	.	.	.	.
4BBB/ 4BB-X	4b-X/ 4dd	8f\L	.	4dd\	mo-	mną	-so-	.
!	!LO:TX:b:i:t=poco rallentando_:problem :text with line extensions	!	!	!	!	!	!	!
.	.	8d\J	.	.	.	.	.	.
*	*v	*v	*	*	*	*	*	*
!!LO:LB:g=original	!	!	!	!	!	!	!
=24	=24	=24	=24	=24	=24	=24	=24
2CCn/ 2Cn	(8e/L [>8g 8ccn	[ >	8cc#\	-ście,	roz-	-ło,	.
.	8d/J) 8g] 8b-X	.	8b-X\	u	-tę-	szczę-	.
.	(8c#/L 8fn 8a	.	8a/	spu-	-sknio-	-śli-	.
.	8B-X/J) 8f 8g	]]	8g/	-sta,	-na	-wie	.
=25	=25	=25	=25	=25	=25	=25	=25
[4FFn/	(8cn/L 8a	.	4a/	Za-	Bie-	I	.
.	8e-X/J) 8g	.	.	.	.	.	.
4FF/]	(8c/L 8a	.	4a/	-wo-	-rzesz,	twój	.
.	8e-/J) 8g	.	.	.	.	.	.
=26	=26	=26	=26	=26	=26	=26	=26
*	*^	*	*	*	*	*	*
4FFn/	8g/L	4G\ 4A 4c#	.	8g/	-ła-	miast	list	.
.	8f#/J	.	.	8f#/	-łaś	mi-	ca-	.
4EEn/	8dd/L	4d\ 4g	.	8dd\	do	-ło-	-łu-	.
.	8b-X/J	.	.	8b-X\	mnie:	-ści	-je,	.
=27	=27	=27	=27	=27	=27	=27	=27	=27
2AA/	4a/	8r	.	4a/	„Zo-	Roz-	Jak	.
.	.	8B\ 8d 8g	.	.	.	.	.	.
.	8f#X/L	4G\ 4A 4c#	.	4a/	-staw	-pu-	cie-	.
.	8e/J	.	.	.	.	.	.	.
!!LO:LB:g=original	!	!	!	!	!	!	!	!
=28	=28	=28	=28	=28	=28	=28	=28	=28
2DD/ 2D	2f#X/	8d\L	.	8a^>/	mi	-stę	-bie,	.
!	!LO:TX:b:t=ri_te_nu_to:dur=6eq:ext=ud:problem:text with extention lines 	!	!LO:HP:a	!	!	!	!	!LO:HP:a
.	.	8c#X\J	<	8a^>/	choć	w ra-	tak	<
.	.	8B\L	.	8a^>/	u-	-mio-	tkli-	.
.	.	8B-X\J	[[	8a^>/	-sta!”	-na.	-wie.	[[
*	*v	*v	*	*	*	*	*	*
=29	=29	=29	=29	=29	=29	=29	=29
2DD/ 2AA	4A/ 4B 4c# 4g	.	8a/	„Zo-	Roz-	Jak	.
.	.	.	8een\	-staw	-pu-	cie-	.
.	8d/L 8g 8b	.	8bn\	mi	-stę	-bie,	.
.	8c#/J 8g 8a	.	8a/	choć	w ra-	tak	.
=30	=30	=30	=30	=30	=30	=30	=30
*M3/4	*M3/4	*	*M3/4	*	*	*	*
!	!LO:TX:b:i:t=a tempo	!	!	!	!	!	!
8DD/L	2.d/ 2.f#X 2.a 2.dd	.	4dd\	u-	-mio-	tkli-	.
8AA/J	.	.	.	.	.	.	.
8BB/L	.	.	8dd\	-sta!”	-na.	-wie.	.
8C#X/	.	.	8r	.	.	.	.
8D/	.	.	4r	.	.	.	.
8E/J	.	.	.	.	.	.	.
=31	=31	=31	=31	=31	=31	=31	=31
8F#X\L	2r	.	2r	.	.	.	.
8E\J	.	.	.	.	.	.	.
4G\	.	.	.	.	.	.	.
4F#\	4r	.	4r	.	.	.	.
=32	=32	=32	=32	=32	=32	=32	=32
4D:\ 4A: 4f#:	4dd\ 4ff# 4aa 4ddd	.	2r	.	.	.	.
4r	4r	.	.	.	.	.	.
4r	4r	.	4r	.	.	.	.
==	==	==	==	==	==	==	==
*-	*-	*-	*-	*-	*-	*-	*-
!!!system-decoration: s1{(s2,s3)}
!!!RDF**kern: > = above
!!!RDF**kern: < = below
!!!ENC: Berenika Jozajtis
!!!END: 2023-08-21
!!!ENC: Jan Barakat
!!!END: 2023-09-20
